X: 51
T: Hjortingen
S: Hjort Anders Olsson
O: Bingsj, Dalarna
Z:Transcribed to abc by Jon Magnusson 080520
R: Polska
M: 3/4
L: 1/16
K: A
E|:A3B c3d ~c3B|efec ({A}A4) ~E4-|(3 E4a4g4 f3e|^defg a2ba g2~f2|
e2^de f2df e2B2|[1 G2BG E6E2:|[2 G2BG E6D2|]
|:C3E A2E2 ~F4|F3A B3F G4|G3B e2B2 c4|c3e f2c2 ^d4|
^d3f b2f2 g3a|~g2fe ^defg a4|A2Bc d2fe dcBA|[1 EGBG A6D2:|[2 EGBG A8|]
|:e2fe dcBA GABc|d2fd e8|e2fe dcBA GABc|[1 BAGA E8:|[2 BAGA E6D2|]
|C3E A2E2 ~F4|F3A B3F G4|G3B e2B2 c4|c3e f2c2 ^d4|
^d3f b2f2 g3a|~g2fe ^defg a4|A2Bc d2fe dcBA|EGBG A8|]
